site/img/logos/sngular.svg

<?xml version="1.0" encoding="UTF-8"?>
<svg width="400px" height="360px" viewBox="0 0 400 360" version="1.1" xmlns="http://www.w3.org/2000/svg" xmlns:xlink="http://www.w3.org/1999/xlink">
    <title>logos/sngular</title>
    <g id="logos/sngular" stroke="none" stroke-width="1" fill="none" fill-rule="evenodd">
        <path d="M61.3168625,179.346514 L61.3168625,285.493218 L56.0429535,285.493218 L56.0429535,179.346514 L61.3168625,179.346514 Z M160.419846,206.116527 C164.327232,206.071795 168.186425,206.981993 171.662024,208.768015 C173.03545,209.472851 174.315628,210.346193 175.472932,211.367829 C176.428889,212.207521 177.284728,213.147329 178.024303,214.180796 L178.234226,214.180796 L178.234226,207.366376 L192.880384,207.366376 L192.696298,254.563501 L192.693069,254.563501 C192.693069,264.33299 190.219208,271.76749 185.265028,276.860542 C180.317307,281.956824 172.837592,284.488817 162.835574,284.456827 C158.252237,284.462433 153.683117,283.946687 149.216422,282.91924 C144.715973,281.872815 140.50984,279.823844 136.911711,276.925134 L145.712325,263.767813 C148.073731,265.747617 150.69861,267.389933 153.511768,268.647713 C156.339878,269.873992 159.394751,270.490249 162.47709,270.456279 C167.35376,270.456279 170.945057,269.271022 173.247749,266.903738 C175.57118,264.463706 176.811366,261.18915 176.687255,257.822151 L176.687255,252.86797 L176.477332,252.86797 C174.776596,255.212926 172.433433,257.015445 169.730734,258.05791 C167.28271,259.026785 164.676436,259.549978 162.044326,259.595192 C158.480735,259.644077 154.943861,258.974049 151.645069,257.625146 C148.649443,256.364021 145.953328,254.485544 143.732591,252.112248 C141.461772,249.67837 139.709248,246.808405 138.581406,243.676577 C137.345587,240.240767 136.733122,236.611911 136.772839,232.960821 C136.772839,229.569759 137.331557,226.201304 138.419927,222.987869 C139.445338,219.863952 141.027477,216.951328 143.089904,214.390719 C145.127822,211.903588 147.656424,209.863116 150.517944,208.396613 C153.581104,206.834554 156.982007,206.051436 160.419846,206.116527 Z M224.362359,207.33085 L224.362359,232.602337 C224.362359,234.087945 224.417262,235.628456 224.523838,237.220641 C224.611037,238.732086 224.933995,240.220923 225.479795,241.632251 C226.51116,244.648751 229.48796,246.554278 232.659158,246.227948 C234.378574,246.296545 236.08585,245.912324 237.610109,245.113742 C238.843809,244.412922 239.854669,243.382685 240.532881,242.142525 C241.22525,240.838384 241.673968,239.418903 241.85701,237.953756 C242.073392,236.335735 242.179969,234.704796 242.179969,233.070627 L242.179969,207.369605 L258.12442,207.369605 L258.12442,258.962193 L242.848492,258.962193 L242.848492,251.950769 L242.63534,251.950769 C242.01526,253.016531 241.285374,254.011243 240.458601,254.921985 C239.518058,255.959548 238.429859,256.85296 237.229018,257.573473 C235.863151,258.396452 234.398058,259.042178 232.869081,259.495075 C231.144638,260.003887 229.354284,260.25421 227.556417,260.237879 C224.185363,260.370479 220.828237,259.735496 217.738485,258.380868 C215.347816,257.247355 213.326792,255.460344 211.909087,253.226454 C210.466219,250.863303 209.52621,248.22798 209.147794,245.485144 C208.670035,242.286654 208.438977,239.056157 208.456663,235.822231 L208.456663,207.33085 L224.362359,207.33085 Z M25.1067781,206.17466 C28.585039,206.349057 32.0245448,207.007892 35.3187195,208.131787 C38.6407461,209.216752 41.601136,211.192952 43.8771144,213.844919 L33.6877801,223.036312 L33.6845505,223.039542 C31.6157106,220.099875 28.2681203,218.324092 24.674014,218.259759 C23.311272,218.199307 21.9535179,218.461563 20.7113157,219.02517 C19.4485487,219.580659 18.6476121,220.853114 18.6928263,222.232146 C18.5995937,223.491704 19.3154261,224.67179 20.4755561,225.171067 C22.0580518,225.946167 23.721287,226.553328 25.4297364,226.989322 L31.8307699,228.775281 C34.0696717,229.400266 36.2077467,230.342063 38.18013,231.5721 C40.1304106,232.78647 41.764237,234.446862 42.9469945,236.416475 C44.251746,238.825744 44.8072343,241.567659 44.5424085,244.296657 C44.5096109,247.206503 43.5989592,250.038641 41.9296758,252.422288 C40.4040112,254.499991 38.4175006,256.195766 36.1261152,257.376468 C33.6944286,258.615096 31.0684423,259.427797 28.3621977,259.779278 C25.5782972,260.176517 22.7653304,260.312159 19.9555932,260.189435 C16.2643767,260.005106 12.6156526,259.317303 9.11065359,258.145109 C5.60937188,257.033268 2.4737405,254.995666 0.0355254128,252.24789 L10.176416,241.990735 C11.4635269,243.75252 13.0979238,245.23194 14.9788059,246.337754 C16.8703361,247.410473 18.9961983,248.002654 21.1699164,248.062351 C22.8421918,248.145901 24.5164763,247.943851 26.1208671,247.464878 C27.5017318,247.247801 28.5380278,246.087204 28.5979573,244.690666 C28.6778563,243.382179 27.959652,242.154981 26.7797021,241.583807 C25.2133543,240.737657 23.5501191,240.08851 21.8255218,239.649287 L15.4374066,237.866557 C13.2138009,237.248826 11.0795876,236.34564 9.08804651,235.179544 C7.12485683,234.023459 5.48525458,232.390522 4.32118203,230.432057 C3.01432802,228.02004 2.4576564,225.272668 2.72253845,222.542186 C2.77610173,219.80963 3.54080023,217.138194 4.94126196,214.791187 C6.22601613,212.703298 7.9645761,210.931622 10.0278552,209.607706 C12.1998081,208.253501 14.5995286,207.304774 17.1103306,206.807658 C19.7385589,206.261023 22.4252789,206.048342 25.1067781,206.17466 Z M337.853135,207.947701 C340.678584,208.986102 343.172026,210.766654 345.071253,213.102115 C346.937952,215.556598 348.210407,218.41155 348.785273,221.440898 C349.534536,225.196903 349.89302,229.02073 349.851035,232.847785 L349.851035,258.962193 L335.301764,258.962193 L335.301764,252.422288 L335.091841,252.422288 C333.423893,255.096609 330.954363,257.176214 328.035202,258.364721 C325.088885,259.571138 321.933872,260.18568 318.750151,260.173477 C316.39899,260.182657 314.059294,259.845306 311.806548,259.172116 C309.671327,258.564222 307.67115,257.555913 305.912559,256.2009 C304.217505,254.866638 302.838859,253.173661 301.87558,251.24349 C300.847179,249.092031 300.33832,246.729156 300.389972,244.345101 C300.30975,241.737245 300.875568,239.150011 302.037059,236.813713 C303.107541,234.793335 304.633365,233.049694 306.493884,231.720661 C308.448254,230.336217 310.614412,229.278224 312.907836,228.587965 C315.333253,227.838702 317.816802,227.286444 320.335877,226.940878 C322.900855,226.590515 325.482914,226.379207 328.070728,226.30788 C330.654394,226.243288 333.041056,226.204533 335.227484,226.198074 C335.332573,223.602336 334.214827,221.10743 332.207824,219.457934 C330.194849,217.803629 327.655999,216.924884 325.051068,216.980844 C322.568316,216.95174 320.114565,217.516457 317.894312,218.627932 C315.70042,219.753017 313.738996,221.282708 312.113358,223.136429 L303.632473,214.464999 C306.628057,211.697116 310.170683,209.588043 314.031731,208.273889 C317.987114,206.894497 322.147445,206.194557 326.336442,206.203726 C330.249477,206.079429 334.152337,206.670439 337.853135,207.947701 Z M115.060353,207.963849 C117.429884,209.108392 119.432234,210.892609 120.841306,213.115033 C122.28493,215.488777 123.240887,218.124117 123.651044,220.869262 C124.164547,224.066549 124.413225,227.296132 124.393848,230.532174 L124.393848,259.023555 L108.488151,259.023555 L108.488151,233.703625 C108.488151,232.218017 108.433249,230.677506 108.326672,229.085321 C108.240243,227.574215 107.91881,226.085814 107.373945,224.673711 C106.33155,221.680276 103.37075,219.793701 100.217189,220.11354 C98.4963444,220.044756 96.7877094,220.430146 95.2630092,221.230975 C94.0317605,221.929701 93.0204854,222.958875 92.3434661,224.202192 C91.6510972,225.506333 91.2023795,226.925814 91.0193371,228.390961 C90.7997255,230.005752 90.6963788,231.636692 90.6963788,233.267631 L90.6963788,258.962193 L74.7616164,258.962193 L74.7616164,207.369605 L90.0375439,207.369605 L90.0375439,214.3778 L90.2506964,214.3778 C90.811756,213.292337 91.5239785,212.291963 92.3660732,211.406584 C93.3380741,210.377574 94.446432,209.486541 95.6602479,208.758326 C97.0228502,207.940295 98.4834471,207.297893 100.007267,206.846413 C101.726485,206.338993 103.511308,206.088683 105.303783,206.103609 C108.655488,205.968743 111.993415,206.60517 115.060353,207.963849 Z M288.47927,178.716745 L288.47927,258.962193 L272.570344,258.962193 L272.570344,178.716745 L288.47927,178.716745 Z M393.821808,206.09392 C394.739009,206.09392 395.65944,206.129445 396.583101,206.203726 C397.4454,206.261858 398.29801,206.40396 399.134472,206.623572 L399.134472,221.166384 C396.943626,220.459155 394.654495,220.103795 392.352348,220.11354 C389.883486,219.993563 387.418378,220.416909 385.131,221.3537 C383.454846,222.119111 382.037059,223.356041 381.045577,224.906241 C380.040825,226.572995 379.407418,228.436865 379.188567,230.370695 C378.894625,232.691737 378.754371,235.029665 378.768721,237.369202 L378.768721,258.923438 L362.859796,258.923438 L362.859796,207.369605 L378.768721,207.369605 L378.768721,215.643797 L378.978644,215.643797 C380.382087,212.803191 382.454627,210.346067 385.017965,208.483811 C387.640831,206.809459 390.712321,205.975672 393.821808,206.09392 Z M335.33729,236.316358 L331.377821,236.316358 C330.140891,236.316358 328.677889,236.316358 326.872553,236.477837 C325.110263,236.577674 323.365447,236.88112 321.672924,237.38212 C320.116265,237.821343 318.669412,238.580295 317.426022,239.610532 C316.234306,240.647228 315.58516,242.174821 315.6659,243.750858 C315.58839,245.527128 316.557265,247.190363 318.14299,247.997759 C319.689642,248.910442 321.449922,249.398418 323.245731,249.412353 C324.766864,249.415546 326.284768,249.202394 327.750999,248.779318 C329.130031,248.388539 330.438012,247.778148 331.626499,246.970752 C332.750394,246.205341 333.677284,245.188022 334.336119,243.999535 C335.030479,242.691554 335.376045,241.228553 335.33729,239.749404 L335.33729,236.316358 Z M165.435388,220.103851 C163.697994,220.083564 161.977586,220.447496 160.397239,221.169613 C158.882952,221.841383 157.499744,222.776279 156.311816,223.930907 C153.930707,226.266725 152.591792,229.463822 152.597776,232.799342 L152.64624,232.847785 C152.64624,236.180715 153.983287,239.371543 156.36026,241.706532 C157.529369,242.875641 158.895483,243.825138 160.397239,244.516269 C161.979734,245.239695 163.697873,245.604638 165.435388,245.582031 C167.143002,245.585592 168.831439,245.222132 170.386339,244.516269 C171.904243,243.838056 173.292964,242.8821 174.471761,241.706532 C176.824361,239.356732 178.146273,236.16804 178.146273,232.842941 C178.146273,229.517843 176.824361,226.32915 174.471761,223.979351 C173.290349,222.804291 171.9063,221.852415 170.386339,221.169613 C168.831439,220.46375 167.143002,220.10029 165.435388,220.103851 Z" id="Combined-Shape" fill="#FFFFFF" fill-rule="nonzero"></path>
    </g>
</svg>

<svg width="400" height="360" viewBox="0 0 400 360" xmlns="http://www.w3.org/2000/svg"><path d="M61.317 179.347v106.146h-5.274V179.347h5.274zm99.103 26.77a23.996 23.996 0 0111.242 2.651 18.57 18.57 0 013.81 2.6c.957.84 1.813 1.78 2.552 2.813h.21v-6.815h14.646l-.184 47.198h-.003c0 9.769-2.474 17.203-7.428 22.297-4.948 5.096-12.427 7.628-22.43 7.596a60.424 60.424 0 01-13.619-1.538 30.694 30.694 0 01-12.304-5.994l8.8-13.157a33.287 33.287 0 007.8 4.88 21.929 21.929 0 008.965 1.808c4.877 0 8.468-1.185 10.77-3.552a12.502 12.502 0 003.44-9.082v-4.954h-.21a15.005 15.005 0 01-6.746 5.19 21.923 21.923 0 01-7.687 1.537c-3.563.05-7.1-.621-10.399-1.97a23.124 23.124 0 01-7.912-5.513 24.567 24.567 0 01-5.152-8.435 30.675 30.675 0 01-1.808-10.716 31.1 31.1 0 011.647-9.973 27.258 27.258 0 014.67-8.597 23.402 23.402 0 017.428-5.994 20.924 20.924 0 019.902-2.28zm63.942 1.214v25.271c0 1.486.055 3.026.162 4.619.087 1.511.41 3 .956 4.411a6.847 6.847 0 007.18 4.596 9.824 9.824 0 004.95-1.114 7.624 7.624 0 002.923-2.971 12.143 12.143 0 001.324-4.19c.216-1.617.323-3.248.323-4.882V207.37h15.944v51.592h-15.276v-7.011h-.213a17.552 17.552 0 01-2.176 2.971 14.265 14.265 0 01-3.23 2.651 18.787 18.787 0 01-4.36 1.922 18.19 18.19 0 01-5.313.743 22.271 22.271 0 01-9.818-1.857 14.016 14.016 0 01-5.829-5.155 20.136 20.136 0 01-2.761-7.74 63.074 63.074 0 01-.691-9.664v-28.491h15.905zm-199.255-1.156c3.478.174 6.918.833 10.212 1.957a19.087 19.087 0 018.558 5.713l-10.19 9.191-.002.004a11.265 11.265 0 00-9.011-4.78 8.662 8.662 0 00-3.963.765 3.386 3.386 0 00-2.018 3.207 2.962 2.962 0 001.783 2.94 25.73 25.73 0 004.954 1.817l6.4 1.786a24.393 24.393 0 016.35 2.797 14.5 14.5 0 014.767 4.844 13.752 13.752 0 011.595 7.88 14.45 14.45 0 01-2.612 8.126 16.678 16.678 0 01-5.804 4.954 23.883 23.883 0 01-7.764 2.403 45.455 45.455 0 01-8.406.41 40.573 40.573 0 01-10.845-2.044 20.379 20.379 0 01-9.075-5.897l10.14-10.257a15.974 15.974 0 004.803 4.347 13.29 13.29 0 006.19 1.724 14.737 14.737 0 004.952-.597 2.936 2.936 0 002.477-2.774 3.233 3.233 0 00-1.818-3.107 21.677 21.677 0 00-4.954-1.935l-6.389-1.782a26.722 26.722 0 01-6.349-2.687 13.535 13.535 0 01-4.767-4.748 13.77 13.77 0 01-1.598-7.89 15.728 15.728 0 012.218-7.75 16.322 16.322 0 015.087-5.184 21.15 21.15 0 017.082-2.8 31.899 31.899 0 017.997-.633zm312.746 1.773a16.752 16.752 0 017.218 5.154 19.91 19.91 0 013.714 8.339 55.221 55.221 0 011.066 11.407v26.114h-14.55v-6.54h-.21a14.97 14.97 0 01-7.056 5.943 24.258 24.258 0 01-9.285 1.808c-2.351.01-4.69-.328-6.943-1a17.514 17.514 0 01-5.894-2.972 14.614 14.614 0 01-4.037-4.958 15.23 15.23 0 01-1.486-6.898 15.825 15.825 0 011.647-7.531 14.74 14.74 0 014.457-5.093 22.13 22.13 0 016.414-3.133 46.642 46.642 0 017.428-1.647 71.761 71.761 0 017.735-.633c2.583-.065 4.97-.103 7.156-.11a8.29 8.29 0 00-3.02-6.74 10.903 10.903 0 00-7.156-2.477 15.58 15.58 0 00-7.157 1.647 19.562 19.562 0 00-5.78 4.508l-8.482-8.671a29.176 29.176 0 0110.4-6.191 37.12 37.12 0 0112.304-2.07 32.17 32.17 0 0111.517 1.744zm-222.793.016a14.113 14.113 0 015.781 5.151 20.853 20.853 0 012.81 7.754c.514 3.198.762 6.427.743 9.663v28.492h-15.906v-25.32a69.25 69.25 0 00-.161-4.619c-.087-1.51-.408-3-.953-4.411a6.847 6.847 0 00-7.157-4.56 9.811 9.811 0 00-4.954 1.117 7.59 7.59 0 00-2.92 2.971 12.143 12.143 0 00-1.324 4.189 36.2 36.2 0 00-.323 4.877v25.694H74.762V207.37h15.276v7.008h.213a12.918 12.918 0 012.115-2.971 15.502 15.502 0 013.294-2.649 18.848 18.848 0 014.347-1.912 18.176 18.176 0 015.297-.742c3.351-.135 6.69.501 9.756 1.86zm173.42-29.247v80.245h-15.91v-80.245h15.91zm105.342 27.377c.917 0 1.837.035 2.761.11.862.058 1.715.2 2.551.42v14.542a21.777 21.777 0 00-6.782-1.052 16.89 16.89 0 00-7.221 1.24 9.577 9.577 0 00-4.085 3.552 13.532 13.532 0 00-1.857 5.465 53.11 53.11 0 00-.42 6.998v21.554h-15.91V207.37h15.91v8.274h.21a19.558 19.558 0 016.039-7.16 15.282 15.282 0 018.804-2.39zm-58.485 30.222h-3.96c-1.236 0-2.7 0-4.504.162-1.763.1-3.508.403-5.2.904a11.588 11.588 0 00-4.247 2.229 5.14 5.14 0 00-1.76 4.14 4.547 4.547 0 002.477 4.247c1.547.912 3.307 1.4 5.103 1.414a16.11 16.11 0 004.505-.633 13.394 13.394 0 003.875-1.808 8.691 8.691 0 002.71-2.971 8.583 8.583 0 001.001-4.25v-3.434zm-169.902-16.212a11.791 11.791 0 00-5.038 1.066 14.016 14.016 0 00-4.085 2.76 12.392 12.392 0 00-3.714 8.87l.048.048c0 3.333 1.337 6.524 3.714 8.859a13.957 13.957 0 004.037 2.81c1.583.723 3.3 1.088 5.038 1.065 1.708.004 3.396-.36 4.951-1.066a13.727 13.727 0 004.086-2.81 12.528 12.528 0 000-17.727 13.83 13.83 0 00-4.086-2.81 11.917 11.917 0 00-4.95-1.065z" fill="#FFF"/></svg>
